Papirus/22x22/panel/ubuntuone-client-paused.svg

<?xml version="1.0" encoding="UTF-8" standalone="no"?>
<svg xmlns:dc="http://purl.org/dc/elements/1.1/" xmlns:cc="http://creativecommons.org/ns#" xmlns:rdf="http://www.w3.org/1999/02/22-rdf-syntax-ns#" xmlns:svg="http://www.w3.org/2000/svg" xmlns="http://www.w3.org/2000/svg" version="1.1" id="svg2" viewBox="0 0 22 22">
    <metadata id="metadata10">
        <rdf:RDF>
            <cc:Work rdf:about="">
                <dc:format>
                    image/svg+xml
                </dc:format>
                <dc:type rdf:resource="http://purl.org/dc/dcmitype/StillImage"/>
                <dc:title/>
            </cc:Work>
        </rdf:RDF>
    </metadata>
    <path id="path4142" d="M 9.0273438 5.0019531 C 8.6355892 5.0131359 8.2375226 5.0859389 7.8417969 5.2207031 C 6.1492059 5.7956368 4.8724963 7.4624417 4.4941406 9.5332031 C 3.3830962 9.8011722 2.4454961 10.781616 2.1171875 12.189453 C 1.65175 14.189223 2.6208353 16.250564 4.2753906 16.8125 C 4.3024156 16.8205 4.3098646 16.83675 4.3378906 16.84375 C 4.5661054 16.942735 4.8306488 17 5.0878906 17 L 17.068359 17 C 17.497762 17 17.891248 16.85272 18.226562 16.59375 C 19.567823 15.819839 20.299204 13.976248 19.882812 12.189453 C 19.575525 10.868606 18.715319 9.8994145 17.693359 9.5644531 C 17.684359 9.5204581 17.703369 9.4834477 17.693359 9.4394531 C 17.227921 7.4396836 15.500258 6.2837679 13.845703 6.8457031 C 13.528405 6.9536907 13.236953 7.1004777 12.970703 7.3144531 C 12.059232 5.83425 10.576042 4.9617478 9.0292969 5.0019531 L 9.0273438 5.0019531 z M 8.3417969 9 L 9.6835938 9 C 9.866192 9 10 9.216779 10 9.46875 L 10 14.53125 C 10 14.783221 9.8661921 15 9.6835938 15 L 8.3417969 15 C 8.1591984 15 8 14.783221 8 14.53125 L 8 9.46875 C 8 9.216779 8.1591984 9 8.3417969 9 z M 11.341797 9 L 12.683594 9 C 12.866192 9 13 9.216779 13 9.46875 L 13 14.53125 C 13 14.783221 12.866192 15 12.683594 15 L 11.341797 15 C 11.159199 15 11 14.783221 11 14.53125 L 11 9.46875 C 11 9.216779 11.159199 9 11.341797 9 z " style="fill:#ffffff;fill-opacity:1;opacity:1"/>
</svg>

<?xml version="1.0" encoding="UTF-8" standalone="no"?>
<svg id="svg2" xmlns:rdf="http://www.w3.org/1999/02/22-rdf-syntax-ns#" xmlns="http://www.w3.org/2000/svg" viewBox="0 0 22 22" version="1.1" xmlns:cc="http://creativecommons.org/ns#" xmlns:dc="http://purl.org/dc/elements/1.1/">
 <metadata id="metadata10">
  <rdf:RDF>
   <cc:Work rdf:about="">
    <dc:format>image/svg+xml</dc:format>
    <dc:type rdf:resource="http://purl.org/dc/dcmitype/StillImage"/>
    <dc:title/>
   </cc:Work>
  </rdf:RDF>
 </metadata>
 <path id="path4142" d="m9.0273 5.002c-0.3917 0.0111-0.7898 0.0839-1.1855 0.2187-1.6926 0.5749-2.9693 2.2417-3.3477 4.3125-1.111 0.268-2.0486 1.2488-2.3769 2.6558-0.4654 2 0.5036 4.062 2.1582 4.623 0.027 0.008 0.0345 0.025 0.0625 0.032 0.2282 0.099 0.4927 0.156 0.75 0.156h11.98c0.43 0 0.823-0.147 1.159-0.406 1.341-0.774 2.072-2.618 1.656-4.405-0.307-1.32-1.168-2.2896-2.19-2.6245-0.009-0.044 0.01-0.0811 0-0.125-0.465-1.9998-2.193-3.1557-3.847-2.5938-0.318 0.108-0.609 0.2548-0.875 0.4688-0.912-1.4803-2.395-2.3528-3.9417-2.3125h-0.002zm-0.6855 3.998h1.3418c0.1826 0 0.3164 0.2168 0.3164 0.4688v5.0622c0 0.252-0.1338 0.469-0.3164 0.469h-1.3418c-0.1826 0-0.3418-0.217-0.3418-0.469v-5.0622c0-0.252 0.1592-0.4688 0.3418-0.4688zm3.0002 0h1.342c0.182 0 0.316 0.2168 0.316 0.4688v5.0622c0 0.252-0.134 0.469-0.316 0.469h-1.342c-0.183 0-0.342-0.217-0.342-0.469v-5.0622c0-0.252 0.159-0.4688 0.342-0.4688z" fill="#fff"/>
</svg>
